public/images/case-studies/speakinc/feature1.svg

<svg width="64" height="64" viewBox="0 0 64 64" fill="none" xmlns="http://www.w3.org/2000/svg">
<path d="M37.75 5C37.0601 5 36.5 5.56006 36.5 6.25C36.5 6.93994 37.0601 7.5 37.75 7.5C38.4399 7.5 39 6.93994 39 6.25C39 5.56006 38.4399 5 37.75 5Z" fill="#7F8284"/>
<path d="M47.75 5H42.75C42.0596 5 41.5 5.55957 41.5 6.25C41.5 6.94043 42.0596 7.5 42.75 7.5H47.75C48.4404 7.5 49 6.94043 49 6.25C49 5.55957 48.4404 5 47.75 5Z" fill="#7F8284"/>
<path d="M57.75 5H52.75C52.0596 5 51.5 5.55957 51.5 6.25C51.5 6.94043 52.0596 7.5 52.75 7.5H57.75C58.4404 7.5 59 6.94043 59 6.25C59 5.55957 58.4404 5 57.75 5Z" fill="#7F8284"/>
<path d="M60.25 0H3.75C1.68213 0 0 1.68213 0 3.75V60.25C0 62.3179 1.68213 64 3.75 64H60.25C62.3179 64 64 62.3179 64 60.25V3.75C64 1.68213 62.3179 0 60.25 0ZM61.5 60.25C61.5 60.9395 60.9395 61.5 60.25 61.5H3.75C3.06055 61.5 2.5 60.9395 2.5 60.25V12.5H61.5V60.25ZM61.5 10H2.5V3.75C2.5 3.06055 3.06055 2.5 3.75 2.5H60.25C60.9395 2.5 61.5 3.06055 61.5 3.75V10Z" fill="#7F8284"/>
<path d="M9.5 28.25H54.5C55.1904 28.25 55.75 27.6904 55.75 27V19.5C55.75 18.8096 55.1904 18.25 54.5 18.25H9.5C8.80957 18.25 8.25 18.8096 8.25 19.5V27C8.25 27.6904 8.80957 28.25 9.5 28.25ZM10.75 20.75H53.25V25.75H10.75V20.75Z" fill="#FF6B00"/>
<path d="M9.5 56.125H24.5C25.1904 56.125 25.75 55.5654 25.75 54.875V34.875C25.75 34.1846 25.1904 33.625 24.5 33.625H9.5C8.80957 33.625 8.25 34.1846 8.25 34.875V54.875C8.25 55.5654 8.80957 56.125 9.5 56.125ZM10.75 36.125H23.25V53.625H10.75V36.125Z" fill="#FF6B00"/>
<path fill-rule="evenodd" clip-rule="evenodd" d="M30.3 42.3V53.7H33.7V42.3H30.3ZM30 40C28.8954 40 28 40.8954 28 42V54C28 55.1046 28.8954 56 30 56H34C35.1046 56 36 55.1046 36 54V42C36 40.8954 35.1046 40 34 40H30Z" fill="#FF6B00"/>
<path fill-rule="evenodd" clip-rule="evenodd" d="M40.3 39.3V53.7H43.7V39.3H40.3ZM40 37C38.8954 37 38 37.8954 38 39V54C38 55.1046 38.8954 56 40 56H44C45.1046 56 46 55.1046 46 54V39C46 37.8954 45.1046 37 44 37H40Z" fill="#FF6B00"/>
<path fill-rule="evenodd" clip-rule="evenodd" d="M50.3 36.3V53.7H53.7V36.3H50.3ZM50 34C48.8954 34 48 34.8954 48 36V54C48 55.1046 48.8954 56 50 56H54C55.1046 56 56 55.1046 56 54V36C56 34.8954 55.1046 34 54 34H50Z" fill="#FF6B00"/>
</svg>

<svg xmlns="http://www.w3.org/2000/svg" width="64" height="64" fill="none" xmlns:v="https://vecta.io/nano"><path d="M37.75 5a1.25 1.25 0 1 0 0 2.5 1.25 1.25 0 1 0 0-2.5zm10 0h-5a1.25 1.25 0 1 0 0 2.5h5a1.25 1.25 0 1 0 0-2.5zm10 0h-5a1.25 1.25 0 1 0 0 2.5h5a1.25 1.25 0 1 0 0-2.5zm2.5-5H3.75C1.682 0 0 1.682 0 3.75v56.5C0 62.318 1.682 64 3.75 64h56.5c2.068 0 3.75-1.682 3.75-3.75V3.75C64 1.682 62.318 0 60.25 0zm1.25 60.25a1.25 1.25 0 0 1-1.25 1.25H3.75a1.25 1.25 0 0 1-1.25-1.25V12.5h59v47.75zm0-50.25h-59V3.75A1.25 1.25 0 0 1 3.75 2.5h56.5a1.25 1.25 0 0 1 1.25 1.25V10z" fill="#7f8284"/><g fill="#ff6b00"><path d="M9.5 28.25h45A1.25 1.25 0 0 0 55.75 27v-7.5a1.25 1.25 0 0 0-1.25-1.25h-45a1.25 1.25 0 0 0-1.25 1.25V27a1.25 1.25 0 0 0 1.25 1.25zm1.25-7.5h42.5v5h-42.5v-5zM9.5 56.125h15a1.25 1.25 0 0 0 1.25-1.25v-20a1.25 1.25 0 0 0-1.25-1.25h-15a1.25 1.25 0 0 0-1.25 1.25v20a1.25 1.25 0 0 0 1.25 1.25zm1.25-20h12.5v17.5h-12.5v-17.5z"/><path d="M30.3 42.3v11.4h3.4V42.3h-3.4zM30 40a2 2 0 0 0-2 2v12a2 2 0 0 0 2 2h4a2 2 0 0 0 2-2V42a2 2 0 0 0-2-2h-4zm10.3-.7v14.4h3.4V39.3h-3.4zM40 37a2 2 0 0 0-2 2v15a2 2 0 0 0 2 2h4a2 2 0 0 0 2-2V39a2 2 0 0 0-2-2h-4zm10.3-.7v17.4h3.4V36.3h-3.4zM50 34a2 2 0 0 0-2 2v18a2 2 0 0 0 2 2h4a2 2 0 0 0 2-2V36a2 2 0 0 0-2-2h-4z" fill-rule="evenodd"/></g></svg>
